!!!COM: Palestrina, Giovanni Perluigi da
!!!OPR: Missa Primi toni
!!!OTL: Gloria
**kern	**kern	**kern	**kern
*Ibass	*Itenor	*Icalto	*Icant
!Bassus	!Tenor	!Altus	!Cantus
*clefF4	*clefGv2	*clefG2	*clefG2
*k[b-]	*k[b-]	*k[b-]	*k[b-]
*G:dor	*G:dor	*G:dor	*G:dor
*M4/2	*M4/2	*M4/2	*M4/2
=1	=1	=1	=1
0r	1.g	1.b-	1.dd
.	2g	2b-	2dd
=2	=2	=2	=2
0r	2f	2a	2dd
.	2e-	2g	2cc
.	2.d	2a	2.ff
.	.	2f	.
.	4c	.	4ee-
=3	=3	=3	=3
0r	2B-	2g	2dd
.	2A	2a	2cc
.	1G	2d	2.b-
.	.	[2g	.
.	.	.	8a
.	.	.	8g
=4	=4	=4	=4
0r	2.d	2g]	2a
.	.	2f	1dd
.	4d	.	.
.	2B-	2b-	.
.	2c	2a	2cc
=5	=5	=5	=5
0r	1e-	1.g	2b-
.	.	.	2g
.	1d	.	2b-
.	.	2f#	[2a
=6	=6	=6	=6
1D	2r	2r	2a]
.	2d	2f#	2a
1G	1d	1g	1b
=7	=7	=7	=7
1C	1e	1g	1cc
2F	2f	2a	2cc
2F	2f	2cc	2a
=8	=8	=8	=8
2A	2f	2cc	2a
2.B-	2.f	2.b-	2.dd
4F	4f	4a	4cc
2G	2d	2g	2b-
=9	=9	=9	=9
2D	2d	2f#	2a
1D	1f#	1a	1dd
2D	2f#	2a	2dd
=10	=10	=10	=10
1G	1g	1b-	1dd
1A	1e	1a	1cc#
=11	=11	=11	=11
2B-	2d	2f	2dd
2G	2B-	2g	2dd
2G	2G	2b-	2dd
2F	2A	[2a	2dd
=12	=12	=12	=12
2E-	2B-	2a]	1ee-
2C	2c	1g	.
1D	1A	.	1dd
.	.	2f#	.
=13	=13	=13	=13
2r	1G	1g	1b
1G	.	.	.
.	2.d	2.g	2.b
2G	.	.	.
.	4d	4g	4b
=14	=14	=14	=14
2G	2d	2g	2b
2.c	2.e	2.g	2.cc
4c	4e	4g	4cc
2c	2e	2a	2cc
=15	=15	=15	=15
1B-	1f	1b-	1dd
2F	2f	2a	1cc
[2A	2e	[2a	.
=16	=16	=16	=16
2A]	2f	2a]	0r
2B-	1g	2d	.
1c	.	1e	.
.	[2a	.	.
=17	=17	=17	=17
2d	2a]	1f	2r
2.d	2.f	.	1a
.	.	4d	.
4c	4e	4e	.
2B-	2d	4f	2b-
.	.	4g	.
=18	=18	=18	=18
1A	1e	4a	1cc
.	.	4b-	.
.	.	1cc	.
1G	2g	.	2dd
.	2g	2b-	[2dd
=19	=19	=19	=19
0r	2f#	2a	4dd]
.	.	.	4cc
.	2g	2.g	2b-
.	1d	.	1a
.	.	8f	.
.	.	8e	.
.	.	2f#	.
=20	=20	=20	=20
2r	1G	2.g	4g
.	.	.	4a
2.G	.	.	4b-
.	.	8f	4cc
.	.	8e-	.
.	2r	1d	1dd
4G	.	.	.
2F	[2d	.	.
=21	=21	=21	=21
2B-	4d]	0r	0r
.	4d	.	.
2A	2c	.	.
2F	2f	.	.
2G	2e	.	.
=22	=22	=22	=22
2A	2c	1r	2r
2B-	2d	.	1dd
1A	1e	2r	.
.	.	[2a	2cc
=23	=23	=23	=23
0r	1d	2a]	1ff
.	.	2f	.
.	1r	1b-	2dd
.	.	.	2ff
=24	=24	=24	=24
0r	1r	2g	2ee
.	.	2b-	2dd
.	2r	4a	4cc
.	.	4g	4b-
.	[2d	4f	4a
.	.	4e	4g
=25	=25	=25	=25
1r	4d]	2f	0a
.	4d	.	.
.	2c	2e	.
2r	[1f	1d	.
[2d	.	.	.
=26	=26	=26	=26
4d]	2f]	2r	0r
4d	.	.	.
2c	2e-	2.g	.
2B-	2d	.	.
.	.	4g	.
2A	2c	2f	.
=27	=27	=27	=27
2G	2.d	1b-	2r
2G	.	.	2.dd
.	4G	.	.
2.F	4A	1a	.
.	4B-	.	4dd
.	[2c	.	2cc
4E	.	.	.
=28	=28	=28	=28
2D	2c]	2.f	1.ff
2D	2B	.	.
.	.	4g	.
1C	1c	4a	.
.	.	8g	.
.	.	8f	.
.	.	4g	2ee-
.	.	4a	.
=29	=29	=29	=29
0r	1r	2b-	2dd
.	.	2a	2cc
.	1G	2g	2b-
.	.	2g	2b-
=30	=30	=30	=30
0D	2.d	1f	1a
.	4e	.	.
.	1f#	[1d	1a
=31	=31	=31	=31
0G	0g	1d]	2.b-
.	.	.	4cc
.	.	1b-	1dd
=32	=32	=32	=32
0E-	0g	0b-	0ee-
=33	=33	=33	=33
0BB-	2f	2b-	2dd
.	2.B-	2.b-	2.dd
.	4B-	4b-	4dd
.	2B-	2b-	2dd
=34	=34	=34	=34
0r	2c	2g	2ee-
.	2B-	2g	2dd
.	2c	2g	2ee-
.	2d	2f#	2dd
=35	=35	=35	=35
1r	1e-	1g	2b-
.	.	.	2cc
2r	1d	2a	1dd
2B-	.	2d	.
=36	=36	=36	=36
2c	0r	2e	0r
2d	.	2f	.
4G	.	2d	.
4A	.	.	.
4B-	.	[2g	.
4G	.	.	.
=37	=37	=37	=37
1A	1r	2g]	1r
.	.	2f#	.
1G	2r	1g	2r
.	2g	.	2b-
=38	=38	=38	=38
1r	2f	1a	2cc
.	2d	.	2dd
2r	4e	1r	4g
.	4f#	.	4a
2B-	[2g	.	4b-
.	.	.	4g
=39	=39	=39	=39
2c	2g]	0r	1a
2d	2f#	.	.
4G	1g	.	2b-
4A	.	.	.
4B-	.	.	2b-
4G	.	.	.
=40	=40	=40	=40
2A	0r	1f	2cc
2.B-	.	.	2.dd
.	.	2g	.
4A	.	.	4cc
2F	.	2a	4cc
.	.	.	8b-
.	.	.	8a
=41	=41	=41	=41
1G	2r	4d	2.b-
.	.	4c	.
.	2B-	4d	.
.	.	4e	4g
2F	2c	1f	2a
2D	2d	.	[2b-
=42	=42	=42	=42
1E-	4G	2.B-	4b-]
.	4A	.	4a
.	4B-	.	1g
.	4G	4c	.
1D	1A	1d	.
.	.	.	2f#
=43	=43	=43	=43
0G	0G	0d	0g
=44	=44	=44	=44
0G	0d	0g	0b
=45	=45	=45	=45
1F	1f	1a	1cc
2F	2f	2a	2cc
2c	2e	2g	2cc
=46	=46	=46	=46
2B	2d	2g	2dd
2c	2c	2g	2ee
1F	1c	1a	1ff
=47	=47	=47	=47
2C	4c	1g	2ee
.	4d	.	.
1c	4e	.	1ee
.	4f	.	.
.	2g	1cc	.
2A	[2a	.	2ee
=48	=48	=48	=48
1d	2a]	1a	1ff
.	2f	.	.
1G	2.g	2.b-	2dd
.	.	.	[2gg
.	4f	4a	.
=49	=49	=49	=49
2.c	4e	1g	4gg]
.	4d	.	4ff
.	2c	.	4ee
4B-	.	.	4dd
4A	2e	1a	4cc
4G	.	.	4b-
2F	[2f	.	4a
.	.	.	4g
=50	=50	=50	=50
1B-	4f]	1d	2f
.	4e	.	.
.	2.d	.	2g
1A	.	1e	[1a
.	8c	.	.
.	8B	.	.
.	2c#	.	.
=51	=51	=51	=51
1D	1d	1f#	1a]
1D	2r	2r	2r
.	2d	2f#	2a
=52	=52	=52	=52
1G	1d	1g	1b
2F	2f	2a	2cc
2F	2f	2a	2cc
=53	=53	=53	=53
2F	2f	2a	2cc
2D	2f	2b-	1dd
1F	1f	1a	.
.	.	.	[2cc
=54	=54	=54	=54
1G	1d	1g	2cc]
.	.	.	2b
[1c	[1e	2r	2r
.	.	[2g	[2cc
=55	=55	=55	=55
2c]	2e]	2g]	2cc]
2c	2e	2g	2cc
1c	1e	1g	1cc
=56	=56	=56	=56
1.B-	1.f	1.b-	1.dd
2B-	2f	2b-	2dd
=57	=57	=57	=57
2G	2g	2b-	2dd
2G	2g	2b-	2dd
1E-	2.g	2.b-	2.ee-
.	4f	4a	4dd
=58	=58	=58	=58
1E-	2e-	2g	2cc
.	2d	2g	1b-
1F	1c	1f	.
.	.	.	2a
=59	=59	=59	=59
0BB-	1B-	2d	1b-
.	.	1f	.
.	2r	.	1dd
.	2B-	[2g	.
=60	=60	=60	=60
0r	1c	2g]	1ee
.	.	1a	.
.	[1d	.	[1ff
.	.	2b-	.
=61	=61	=61	=61
0r	2d]	2.a	2ff]
.	2d	.	2ff
.	.	4f	.
.	2.c	2g	2.ee
.	.	[2a	.
.	4A	.	4cc
=62	=62	=62	=62
0r	2B	4a]	2dd
.	.	4g	.
.	2.c	2.g	2.ee
.	4d	4f	4dd
.	2B-	2d	[2dd
=63	=63	=63	=63
2r	1A	2e	2dd]
1A	.	2e	2cc
.	2r	2f#	1r
2B	2d	[2g	.
=64	=64	=64	=64
2c	2e	2g]	2r
2A	2c	2f#	2a
[1G	2d	[1g	2b
.	2e	.	[2cc
=65	=65	=65	=65
1G]	1d	1g]	2cc]
.	.	.	2b
1F	1f	2a	1cc
.	.	[2a	.
=66	=66	=66	=66
0r	1.d	4a]	2f
.	.	4g	.
.	.	4f	1ff
.	.	4e	.
.	.	2d	.
.	2c	2e	2ee
=67	=67	=67	=67
0r	2B-	2f	2dd
.	2A	2f	2cc
.	2B-	1f	2dd
.	2F	.	2a
=68	=68	=68	=68
0r	1G	2d	1b-
.	.	1g	.
.	1d	.	[1a
.	.	2f#	.
=69	=69	=69	=69
1d	2r	2r	1a]
.	2f	2a	.
2c	2e-	2a	1r
2B	2d	2g	.
=70	=70	=70	=70
2c	2e-	2g	1r
2A	2c	2f#	.
[1G	2d	2g	2r
.	2g	2b-	2dd
=71	=71	=71	=71
1G]	1g	1b-	2ee-
.	.	.	1dd
1r	2f	2a	.
.	2e	2g	2cc
=72	=72	=72	=72
1r	2f	2a	2cc
.	2d	2f	2b
1F	2c	1a	2cc
.	[2a	.	[2ff
=73	=73	=73	=73
1C	2a]	1cc	2ff]
.	2g	.	1ee
1D	2.f	1a	.
.	.	.	[2dd
.	8e	.	.
.	8d	.	.
=74	=74	=74	=74
0A	0e	0a	2dd]
.	.	.	4cc#
.	.	.	4b
.	.	.	1cc#
=75	=75	=75	=75
2D	1d	0a	1dd
2d	.	.	.
2c	2r	.	1r
2A	2a	.	.
=76	=76	=76	=76
2B-	2g	2r	1r
2G	2e	2b-	.
1F	2f	2a	2r
.	2d	2f	2ff
=77	=77	=77	=77
1r	1c	2g	2ee
.	.	2e	2cc
2r	2r	1d	2dd
2G	2d	.	2b-
=78	=78	=78	=78
2.d	2.f	2r	1a
.	.	2d	.
4d	4f	.	.
2c	2e	2.g	1r
[2B-	[2d	.	.
.	.	4g	.
=79	=79	=79	=79
2B-]	2d]	2f	1r
2A	2c	2f	.
2G	2B-	2e	2r
2F	2A	[2d	2dd
=80	=80	=80	=80
1E	1G	4d]	2.gg
.	.	8c	.
.	.	8B	.
.	.	2c#	.
.	.	.	4gg
1D	2A	2d	2ff
.	2d	2a	[2ff
=81	=81	=81	=81
1C	2.g	2.cc	2ff]
.	.	.	1ee
.	4g	4cc	.
2.D	2f	1a	.
.	[2f	.	[2dd
4D	.	.	.
=82	=82	=82	=82
1A	2f]	1a	2dd]
.	2e	.	2cc
2D	1d	2f	2b-
2D	.	[2f	4a
.	.	.	4g
=83	=83	=83	=83
2F	2c	2f]	2a
2G	2B-	2d	1g
1D	1A	1d	.
.	.	.	2f#
=84	=84	=84	=84
[0G	[0G	[0d	[0g
=85	=85	=85	=85
0G]	0G]	0d]	0g]
==	==	==	==
*-	*-	*-	*-
!!!CDT: 1525/^1526/-1594/2/2
!!!OCY: Italia
!!!AGN: Mass (Free)
!!!AST: renaissance, vocal
!!!ASW: Popular Song
!!!PWK: Masses, Book 4
!!!RNB: Cadence finals: D
!!!YOR: Le Opere Complete, v. 10, p. 19
!!!YOO: Rome, Italy: Fratelli Scalera
!!!END: 1992//
!!!EED: John Miller
!!!YEC: Copyright 2000, John Miller
!!!YEN: United States of America
!!!YEM: Rights to all derivative electronic formats reserved.
!!!YEM: Refer to licensing agreement for further details.
!!!YEM: This file must be accompanied by the licensing agreement.
!!!YEM: A copy of the licensing agreement may be found at http://www.music-cog.ohio-state.edu/HumdrumDatabases/Palestrina/license.txt
!!!EMD: converted to Humdrum by Bret Aarden
